X:272
%%etbk:tnset id:83,pos:1,rep:3x,ant:
%%etbk:wsite http://www.thesession.org/tunes/display/2877
%%etbk:pldat 2015-04-22T16:06,2014-12-14T15:52,2014-11-22T16:44,2014-05-07T15:42,2014-03-27T18:22,2014-02-09T13:29,2014-02-05T15:46,2013-11-06T17:33,2013-05-15T16:43
T: Mom's
Z: Piano Box Version by Martin Fleischmann
H: Created 2013-02-19 /  Last Modified 2013-02-19
M: 6/8
L: 1/8
R: jig
K: Ador
|:"am"!1!E!3!A!1!A !1!A!2!G!1!A | !2!BB!1!A A2!2!G | !1!E!3!A!1!A ABc | "G"!2!B2B {d}B!1!A!2!G |
"am"!1!E!3!A!1!A !1!A!2!G!1!A | !2!BB!1!A A!2!e!3!f | "G"!4!g!1!G!4!g gfe | !1!d!2!B!1!G {d}!2!B!1!A!2!G:|
|: "am"!1!A!5!a!1!A !4!g2g | !3!fed {g}!2!e!1!d!2!B | !1!A!5!a!1!A !4!g2g | "G"!1!d!2!B!1!G {d}!2!B!1!A!2!G |
"am"!1!A!5!a!1!A !4!g2g | !3!fed {g}!2!e!1!d!2!B | !1!ABc !2!Bcd | !3!cde !4!d!2!B!1!G:|
|"var bar 1" !1!A3 !1!A!2!G!1!A | |"var bar 9,10 / 13,14" !1!A!5!a!1!A !4!g!1!A!3!f | !1!A!5!e!1!A !4!d!2!B!1!G |


